static/img/logo.svg

<svg width="98" height="20" viewBox="0 0 98 20" fill="none" xmlns="http://www.w3.org/2000/svg">
<path fill-rule="evenodd" clip-rule="evenodd" d="M9.65517 6.83564V8.81003H7.81311V7.44989C7.43548 6.55066 6.43664 5.69571 4.88298 5.69571C3.32933 5.69571 2.35248 6.55066 1.95328 7.44989V13.2406C2.35248 14.1394 3.32933 14.9948 4.88298 14.9948C6.43664 14.9948 7.43548 14.1394 7.81311 13.2406V11.8583H9.65517V13.854C9.18916 14.8853 7.72431 16.5517 4.88298 16.5517C2.01967 16.5517 0.532827 14.8853 0 13.6346V7.0337C0.532827 5.78263 2.01967 4.13793 4.88298 4.13793C7.72431 4.13793 9.18916 5.78263 9.65517 6.83564Z" fill="white"/>
<path fill-rule="evenodd" clip-rule="evenodd" d="M14.3293 11.8581V13.9636C14.6026 14.2707 15.4687 15.0604 17.0189 15.0604C18.6378 15.0604 19.6637 14.4462 20.2336 13.6565V12.2525C19.7319 11.5075 18.6378 10.8272 17.0189 10.8272C15.4461 10.8272 14.6256 11.5075 14.3293 11.8581ZM22.2404 7.03319V14.775H23.4483V16.2446H20.3023V15.2138C19.5495 15.9375 18.2955 16.5517 16.6315 16.5517C13.8729 16.5517 12.7105 15.1699 12.4138 14.7094V11.3098C12.7327 10.7834 13.9189 9.37981 16.6315 9.37981C18.2729 9.37981 19.4813 9.95017 20.2336 10.5644V7.4502C19.8232 6.52843 18.7972 5.69524 17.2244 5.69524C15.6516 5.69524 14.8302 6.50712 14.5114 6.90156V7.99799H12.6423V6.28733C12.9837 5.76126 14.2833 4.13793 17.2244 4.13793C20.1654 4.13793 21.6926 5.78257 22.2404 7.03319Z" fill="white"/>
<path fill-rule="evenodd" clip-rule="evenodd" d="M27.8387 6.91786V13.7571C28.3546 14.3969 29.3011 14.9702 30.6774 14.9702C32.1828 14.9702 32.9785 14.1539 33.2797 13.6247V7.05026C32.9785 6.52025 32.1828 5.70443 30.6561 5.70443C29.3011 5.70443 28.3763 6.27773 27.8387 6.91786ZM35.1724 6.58665V14.0875C34.7852 14.9702 33.6457 16.5366 31.1077 16.5366C29.6454 16.5366 28.5054 16.0071 27.8388 15.3673V18.4999H29V20H24.8276V18.4999H25.9462V5.88095H24.8276V4.40273H27.7958V5.37322C28.5268 4.66752 29.6023 4.13793 31.1077 4.13793C33.6457 4.13793 34.7852 5.70442 35.1724 6.58665Z" fill="white"/>
<path fill-rule="evenodd" clip-rule="evenodd" d="M53.6396 11.8581V13.9636C53.9129 14.2707 54.7794 15.0604 56.3295 15.0604C57.9483 15.0604 58.9742 14.4462 59.5441 13.6565V12.2525C59.0424 11.5075 57.9483 10.8272 56.3295 10.8272C54.7568 10.8272 53.9359 11.5075 53.6396 11.8581ZM61.5503 7.03319V14.775H62.7586V16.2446H59.6127V15.2138C58.8604 15.9375 57.6064 16.5517 55.942 16.5517C53.1835 16.5517 52.0208 15.1699 51.7241 14.7094V11.3098C52.0434 10.7834 53.2291 9.37981 55.942 9.37981C57.5834 9.37981 58.7918 9.95017 59.544 10.5644V7.4502C59.1336 6.52843 58.1077 5.69524 56.5349 5.69524C54.9617 5.69524 54.1408 6.50712 53.822 6.90156V7.99799H51.9526V6.28733C52.2944 5.76126 53.594 4.13793 56.5349 4.13793C59.4759 4.13793 61.003 5.78257 61.5503 7.03319Z" fill="white"/>
<path fill-rule="evenodd" clip-rule="evenodd" d="M68.9655 15.0756V16.5517H64.8276V15.0756H65.9674V2.16581H64.8276V0.689655H67.8256V15.0756H68.9655Z" fill="white"/>
<path fill-rule="evenodd" clip-rule="evenodd" d="M86.2069 6.28782V8.13017H84.356V6.90208C83.9991 6.35301 83.1068 5.67357 81.7242 5.67357C80.3415 5.67357 79.4492 6.33128 79.0923 6.90208V8.17404C79.4271 8.6784 80.1406 9.0294 81.2109 9.27009L82.6161 9.57722C84.7351 10.0598 85.8279 10.8492 86.2069 11.4852V14.4027C85.7387 15.0821 84.4228 16.5517 81.7242 16.5517C79.0256 16.5517 77.665 15.0608 77.2414 14.4027V12.4726H79.0923V13.7884C79.4717 14.3366 80.3415 14.9948 81.7242 14.9948C83.1068 14.9948 83.9991 14.3145 84.356 13.7663V12.2753C84.0437 11.7484 83.3299 11.3983 82.237 11.1567L80.8098 10.8275C78.6912 10.367 77.5983 9.57722 77.2414 8.96296V6.26609C77.6871 5.60754 79.0256 4.13793 81.7242 4.13793C84.4453 4.13793 85.7608 5.62927 86.2069 6.28782Z" fill="white"/>
<path fill-rule="evenodd" clip-rule="evenodd" d="M90.2295 7.47162V9.24836H96.0886V7.47162C95.6894 6.55066 94.7126 5.69571 93.159 5.69571C91.6055 5.69571 90.6286 6.55066 90.2295 7.47162ZM97.931 6.83564V10.6741H90.2295V13.2176C90.6287 14.1394 91.6055 14.9948 93.159 14.9948C94.7126 14.9948 95.6894 14.1394 96.0886 13.2176V12.3188H97.931V13.854C97.465 14.8853 95.9998 16.5517 93.159 16.5517C90.2959 16.5517 88.8087 14.8853 88.2759 13.6346V7.0337C88.8087 5.78263 90.2959 4.13793 93.159 4.13793C95.9998 4.13793 97.465 5.80519 97.931 6.83564Z" fill="white"/>
<path fill-rule="evenodd" clip-rule="evenodd" d="M42.0689 15.0916V16.5517H37.931V15.0916H39.0706V6.28776H37.931V4.82759H40.929V15.0916H42.0689Z" fill="white"/>
<path fill-rule="evenodd" clip-rule="evenodd" d="M41.3793 1.37954C41.3793 2.14131 40.7614 2.75862 39.9998 2.75862C39.2382 2.75862 38.6207 2.14131 38.6207 1.37954C38.6207 0.617307 39.2382 0 39.9998 0C40.7614 0 41.3793 0.617307 41.3793 1.37954Z" fill="white"/>
<path fill-rule="evenodd" clip-rule="evenodd" d="M75.1724 15.0916V16.5517H71.0344V15.0916H72.1745V6.28776H71.0344V4.82759H74.0327V15.0916H75.1724Z" fill="white"/>
<path fill-rule="evenodd" clip-rule="evenodd" d="M74.4828 1.37954C74.4828 2.14131 73.8653 2.75862 73.1035 2.75862C72.342 2.75862 71.7241 2.14131 71.7241 1.37954C71.7241 0.617307 72.342 0 73.1035 0C73.8653 0 74.4828 0.617307 74.4828 1.37954Z" fill="white"/>
<path fill-rule="evenodd" clip-rule="evenodd" d="M50.3448 4.58003V6.04387H46.9723V13.8646C47.1668 14.2579 47.6639 15.0225 49.3287 15.0225C49.7612 15.0225 50.1718 14.9792 50.3448 14.9572V16.3557C50.1068 16.421 49.4799 16.5517 48.68 16.5517C46.259 16.5517 45.4158 15.3501 45.0699 14.5422V6.04387H43.4483V4.58003H45.0699V1.95869L46.9723 1.37931V4.58003H50.3448Z" fill="white"/>
</svg>

<svg width="98" height="20" fill="none" xmlns="http://www.w3.org/2000/svg"><path fill-rule="evenodd" clip-rule="evenodd" d="M9.655 6.836V8.81H7.813V7.45c-.378-.9-1.376-1.754-2.93-1.754-1.554 0-2.53.855-2.93 1.754v5.79c.4.9 1.376 1.755 2.93 1.755 1.554 0 2.552-.856 2.93-1.754v-1.383h1.842v1.996c-.466 1.031-1.93 2.698-4.772 2.698-2.863 0-4.35-1.667-4.883-2.917V7.034c.533-1.251 2.02-2.896 4.883-2.896 2.841 0 4.306 1.645 4.772 2.698ZM14.33 11.858v2.106c.273.307 1.139 1.096 2.689 1.096 1.619 0 2.645-.614 3.215-1.404v-1.404c-.502-.745-1.596-1.425-3.215-1.425-1.573 0-2.393.68-2.69 1.031Zm7.91-4.825v7.742h1.208v1.47h-3.146v-1.031c-.753.723-2.006 1.338-3.67 1.338-2.76 0-3.922-1.382-4.218-1.843v-3.4c.319-.526 1.505-1.93 4.217-1.93 1.642 0 2.85.571 3.603 1.185V7.45c-.41-.922-1.437-1.755-3.01-1.755-1.572 0-2.394.812-2.713 1.207v1.096h-1.869v-1.71c.342-.527 1.641-2.15 4.582-2.15s4.469 1.645 5.016 2.895ZM27.839 6.918v6.84c.516.639 1.462 1.212 2.838 1.212 1.506 0 2.301-.816 2.603-1.345V7.05c-.302-.53-1.097-1.346-2.624-1.346-1.355 0-2.28.574-2.817 1.214Zm7.333-.331v7.5c-.387.883-1.526 2.45-4.064 2.45-1.463 0-2.603-.53-3.27-1.17V18.5H29V20h-4.172v-1.5h1.118V5.88h-1.118V4.404h2.968v.97c.73-.705 1.806-1.235 3.312-1.235 2.538 0 3.677 1.566 4.064 2.449ZM53.64 11.858v2.106c.273.307 1.14 1.096 2.69 1.096 1.618 0 2.644-.614 3.214-1.404v-1.404c-.502-.745-1.596-1.425-3.214-1.425-1.573 0-2.394.68-2.69 1.031Zm7.91-4.825v7.742h1.209v1.47h-3.146v-1.031c-.753.723-2.007 1.338-3.671 1.338-2.758 0-3.921-1.382-4.218-1.843v-3.4c.32-.526 1.505-1.93 4.218-1.93 1.641 0 2.85.571 3.602 1.185V7.45c-.41-.922-1.436-1.755-3.01-1.755-1.572 0-2.393.812-2.712 1.207v1.096h-1.87v-1.71c.342-.527 1.642-2.15 4.583-2.15 2.94 0 4.468 1.645 5.015 2.895ZM68.966 15.076v1.476h-4.138v-1.476h1.14V2.166h-1.14V.69h2.998v14.386h1.14ZM86.207 6.288V8.13h-1.851V6.902c-.357-.549-1.25-1.228-2.632-1.228-1.383 0-2.275.657-2.632 1.228v1.272c.335.504 1.049.855 2.119 1.096l1.405.307c2.12.483 3.212 1.272 3.59 1.908v2.918c-.467.68-1.783 2.149-4.482 2.149-2.698 0-4.059-1.491-4.483-2.15v-1.93h1.851v1.316c.38.549 1.25 1.207 2.632 1.207 1.383 0 2.275-.68 2.632-1.229v-1.49c-.312-.528-1.026-.878-2.119-1.12l-1.427-.329c-2.119-.46-3.212-1.25-3.569-1.864V6.266c.446-.658 1.785-2.128 4.483-2.128 2.721 0 4.037 1.491 4.483 2.15ZM90.23 7.472v1.776h5.859V7.472c-.4-.921-1.376-1.776-2.93-1.776-1.553 0-2.53.855-2.93 1.776Zm7.701-.636v3.838H90.23v2.544c.399.921 1.376 1.777 2.929 1.777 1.554 0 2.53-.856 2.93-1.777v-.9h1.842v1.536c-.466 1.031-1.931 2.698-4.772 2.698-2.863 0-4.35-1.667-4.883-2.917V7.034c.533-1.251 2.02-2.896 4.883-2.896 2.84 0 4.306 1.667 4.772 2.698ZM42.069 15.092v1.46H37.93v-1.46h1.14V6.288h-1.14v-1.46h2.998v10.264h1.14ZM41.38 1.38a1.38 1.38 0 1 1-2.76-.001 1.38 1.38 0 0 1 2.76 0ZM75.172 15.092v1.46h-4.138v-1.46h1.14V6.288h-1.14v-1.46h2.999v10.264h1.14ZM74.483 1.38a1.38 1.38 0 1 1-2.758 0 1.38 1.38 0 0 1 2.758 0ZM50.345 4.58v1.464h-3.373v7.82c.195.394.692 1.159 2.357 1.159.432 0 .843-.044 1.016-.066v1.399a6.767 6.767 0 0 1-1.665.196c-2.421 0-3.264-1.202-3.61-2.01V6.044h-1.622V4.58h1.622V1.959l1.902-.58V4.58h3.373Z" fill="#fff"/></svg>
